X:515
T:The Whin Blossom
M:6/8
L:1/8
B:O'Neill's 515
N:"Graceful" "collected by O'Reilly"
Z:Transcribed by Dave Wooldridge
K:D
(D/2E/2) \
| (FGA) (GAE) | (DEG) (A2B/2c/2) | (dcA) (GAE) | d3 C2 (D/2E/2) |
FGA GAE  | DEG A2 (B/2c/2) | dcA GAE | D3 D2 ||
G \
| (ABc) (d2 e/2d/2) | (cdc) (A2 G/2A/2) | (dcA) (GAE) |  |D3 C2 (D/2E/2) |
FGA GAE | DEG A2 (B/2c/2) | dcA GAE | D3 D2 ||


